school/img/country/PA.svg

<svg width="13" height="12" viewBox="0 0 13 12" fill="none" xmlns="http://www.w3.org/2000/svg">
<rect x="0.25" y="0.25" width="12.5" height="11.5" rx="1.75" fill="white" stroke="#F5F5F5" stroke-width="0.5"/>
<mask id="mask0" mask-type="alpha" maskUnits="userSpaceOnUse" x="0" y="0" width="13" height="12">
<rect x="0.25" y="0.25" width="12.5" height="11.5" rx="1.75" fill="white" stroke="white" stroke-width="0.5"/>
</mask>
<g mask="url(#mask0)">
<path fill-rule="evenodd" clip-rule="evenodd" d="M13 5.6H6.19043V0H13V5.6Z" fill="#E52448"/>
<path fill-rule="evenodd" clip-rule="evenodd" d="M6.19045 12H0V5.60001H6.19045V12ZM13 12H13V5.60001H13V12Z" fill="#1367AE"/>
<path fill-rule="evenodd" clip-rule="evenodd" d="M3.09527 3.456L2.36754 4.09442L2.6125 3.00271L1.91777 2.30557L2.7969 2.26928L3.09527 1.2L3.39364 2.26928L4.27277 2.30557L3.57805 3.00271L3.82301 4.09442L3.09527 3.456Z" fill="#1367AE"/>
<path fill-rule="evenodd" clip-rule="evenodd" d="M9.59527 9.456L8.86754 10.0944L9.1125 9.00271L8.41777 8.30557L9.2969 8.26928L9.59527 7.2L9.89364 8.26928L10.7728 8.30557L10.078 9.00271L10.323 10.0944L9.59527 9.456Z" fill="#E52448"/>
</g>
</svg>

<svg width="13" height="12" fill="none" xmlns="http://www.w3.org/2000/svg"><rect x=".25" y=".25" width="12.5" height="11.5" rx="1.75" fill="#fff" stroke="#F5F5F5" stroke-width=".5"/><mask id="a" maskUnits="userSpaceOnUse" x="0" y="0" width="13" height="12"><rect x=".25" y=".25" width="12.5" height="11.5" rx="1.75" fill="#fff" stroke="#fff" stroke-width=".5"/></mask><g mask="url(#a)" fill-rule="evenodd" clip-rule="evenodd"><path d="M13 5.6H6.19V0H13v5.6z" fill="#E52448"/><path d="M6.19 12H0V5.6h6.19V12zM13 12V5.6 12zM3.095 3.456l-.727.638.244-1.091-.694-.697.879-.037.298-1.069.299 1.07.879.036-.695.697.245 1.091-.728-.638z" fill="#1367AE"/><path d="M9.595 9.456l-.727.638.245-1.091-.695-.697.879-.037.298-1.069.299 1.07.879.036-.695.697.245 1.091-.728-.638z" fill="#E52448"/></g></svg>
